images/auig_dark.svg

<?xml version="1.0" encoding="UTF-8" standalone="no"?>
<svg
   xml:space="preserve"
   viewBox="0 0 29 8"
   version="1.1"
   id="svg10133"
   sodipodi:docname="auig_dark.svg"
   inkscape:version="1.2.1 (9c6d41e4, 2022-07-14)"
   width="29"
   height="8"
   xmlns:inkscape="http://www.inkscape.org/namespaces/inkscape"
   xmlns:sodipodi="http://sodipodi.sourceforge.net/DTD/sodipodi-0.dtd"
   xmlns="http://www.w3.org/2000/svg"
   xmlns:svg="http://www.w3.org/2000/svg"><defs
   id="defs10137" /><sodipodi:namedview
   id="namedview10135"
   pagecolor="#ffffff"
   bordercolor="#000000"
   borderopacity="0.25"
   inkscape:showpageshadow="2"
   inkscape:pageopacity="0.0"
   inkscape:pagecheckerboard="0"
   inkscape:deskcolor="#d1d1d1"
   showgrid="false"
   inkscape:zoom="17.67279"
   inkscape:cx="15.871857"
   inkscape:cy="3.3950497"
   inkscape:window-width="1565"
   inkscape:window-height="814"
   inkscape:window-x="40"
   inkscape:window-y="110"
   inkscape:window-maximized="0"
   inkscape:current-layer="svg10133"
   showguides="true"><sodipodi:guide
     position="16.148854,-2.0930337"
     orientation="0,-1"
     id="guide29461"
     inkscape:locked="false" /><sodipodi:guide
     position="14.034123,6.36589"
     orientation="0,-1"
     id="guide29463"
     inkscape:locked="false" /><sodipodi:guide
     position="31.432591,-7.8604815"
     orientation="1,0"
     id="guide29465"
     inkscape:locked="false" /></sodipodi:namedview>
  
    
    
<g
   id="g18749"
   style="fill:#6495ec;fill-opacity:1"
   transform="matrix(0.64806035,0,0,0.64806035,10.43994,9.7804672)"><path
     d="m 14.761257,-14.474485 h 1.2135 v 6.4239659 q 0,1.6154718 -0.318544,2.6545312 -0.310959,1.031475 -1.14524,1.6306406 -0.826697,0.5991656 -2.108457,0.5991656 -1.805081,0 -2.7076213,-1.0769813 -0.8949563,-1.0769812 -0.8949563,-3.8073561 v -6.4239659 h 1.2059156 v 6.4163815 q 0,1.5092906 0.235116,2.1843 0.235115,0.6750093 0.766022,1.0314749 0.53849,0.3488813 1.304512,0.3488813 1.289344,0 1.865756,-0.7281 0.583997,-0.7281 0.583997,-2.8365562 z"
     id="path18387"
     style="font-stretch:condensed;font-size:15.5328px;line-height:1.03;font-family:'Arial Narrow';-inkscape-font-specification:'Arial Narrow Condensed';fill:#6495ec;fill-opacity:1;stroke-width:2.53696;stroke-linecap:square" /><path
     d="M 17.888561,-3.3557911 V -14.474485 h 1.205915 v 11.1186939 z"
     id="path18389"
     style="font-stretch:condensed;font-size:15.5328px;line-height:1.03;font-family:'Arial Narrow';-inkscape-font-specification:'Arial Narrow Condensed';fill:#6495ec;fill-opacity:1;stroke-width:2.53696;stroke-linecap:square" /><path
     id="path18396"
     style="font-stretch:condensed;font-size:15.5328px;line-height:1.03;font-family:'Arial Narrow';-inkscape-font-specification:'Arial Narrow Condensed';fill:#6495ec;fill-opacity:1;stroke-width:2.53696;stroke-linecap:square"
     d="m 3.3066406,-14.474609 c -1.2033861,0 -2.1072916,0.358185 -2.70898435,1.076171 -0.5966374,0.717988 -0.89453125,1.988346 -0.89453125,3.8085942 v 6.4238282 H 0.91015625 V -7.9765625 H 5.6640625 v 4.8105469 H 6.8789062 V -9.5898438 C 6.8789063,-10.666824 6.7729093,-11.551435 6.5605469,-12.244141 6.3532411,-12.93179 5.9702493,-13.475557 5.4140625,-13.875 4.8629317,-14.274444 4.1611464,-14.474609 3.3066406,-14.474609 Z m -0.091797,1.328125 c 0.8595618,0 1.48096,0.241163 1.8652343,0.726562 0.389331,0.4854 0.5839844,1.432255 0.5839844,2.8378908 v 0.4003906 H 0.91015625 v -0.4003906 c 0,-1.0061928 0.0776312,-1.7355418 0.23437495,-2.1855468 0.1567432,-0.450006 0.4116874,-0.793606 0.765625,-1.03125 0.358993,-0.232587 0.7940067,-0.347656 1.3046874,-0.347656 z" /><path
     id="path18398"
     style="font-stretch:condensed;font-size:15.5328px;line-height:1.03;font-family:'Arial Narrow';-inkscape-font-specification:'Arial Narrow Condensed';fill:#6495ec;fill-opacity:1;stroke-width:2.53696;stroke-linecap:square"
     d="m 24.663002,-14.474609 c -1.203384,0 -2.107292,0.358187 -2.708985,1.076171 -0.532512,0.640823 -0.825581,1.723307 -0.882812,3.242188 -0.0261,0.7015003 -0.02706,1.4035984 -0.03516,2.1054688 -0.0052,0.4482116 0.0082,0.8266369 0.02344,1.1582031 v 0.095703 h 0.0039 c 0.08616,1.6604759 0.374997,1.9623922 0.867188,2.5546875 0.60169,0.7179854 1.503647,1.0761719 2.707031,1.0761719 0.854504,0 1.558247,-0.2001669 2.109375,-0.5996094 0.556184,-0.3994425 0.937225,-0.9432115 1.144531,-1.6308594 0.434804,-1.1991163 0.366552,-2.3572381 0.347656,-3.7148437 h -1.242187 v 0.00195 h -2.648437 v 1.2265625 h 2.644531 c -0.01618,1.3064435 -0.207662,2.197796 -0.580078,2.6621094 -0.384275,0.4853985 -1.005675,0.7265625 -1.865235,0.7265625 -0.510678,0 -0.945697,-0.1150694 -1.304687,-0.3476563 -0.353938,-0.2376428 -0.610838,-0.581245 -0.767578,-1.03125 -0.106661,-0.3062144 -0.174904,-0.7448442 -0.208985,-1.3085937 v -2.4003906 c 0,-1.0061906 0.07763,-1.7355436 0.234375,-2.1855466 0.156743,-0.450006 0.41169,-0.793606 0.765625,-1.03125 0.358993,-0.232587 0.794007,-0.347656 1.304688,-0.347656 0.85956,0 1.480962,0.241165 1.865234,0.726562 0.195492,0.243731 0.34204,0.605243 0.439453,1.082031 h 1.242188 c -0.05064,-0.331883 -0.11764,-0.633776 -0.201172,-0.90625 -0.207306,-0.687647 -0.590298,-1.231416 -1.146485,-1.630859 -0.551128,-0.399444 -1.252917,-0.599609 -2.107421,-0.599609 z" /></g><path
   id="rect31659"
   style="opacity:1;fill:#6495ec;fill-opacity:1;stroke-width:2.03468;stroke-linecap:square"
   d="M 0.21679688 0.28515625 L 0.21679688 7.7851562 L 7.7167969 7.7851562 L 7.7167969 0.28515625 L 0.21679688 0.28515625 z M 1.53125 1.2324219 L 2.3378906 1.2324219 L 2.3378906 2.4980469 L 1.53125 2.4980469 L 1.53125 1.2324219 z M 5.515625 1.2324219 L 6.328125 1.2324219 L 6.328125 2.4980469 L 5.515625 2.4980469 L 5.515625 1.2324219 z M 1.53125 3.8339844 L 2.3378906 3.8339844 L 2.3378906 4.53125 C 2.3378906 5.0485566 2.3893532 5.4229386 2.4941406 5.6542969 C 2.5989273 5.885655 2.7692424 6.0633695 3.0058594 6.1855469 C 3.2458559 6.3051284 3.5355495 6.3632812 3.8769531 6.3632812 C 4.451593 6.3632812 4.8681025 6.2397893 5.125 5.9902344 C 5.3852782 5.7406793 5.515625 5.2539197 5.515625 4.53125 L 5.515625 3.8339844 L 6.328125 3.8339844 L 6.328125 4.5351562 C 6.328125 5.0888565 6.2572045 5.5442549 6.1152344 5.9003906 C 5.976645 6.2539274 5.721435 6.5329182 5.3496094 6.7382812 C 4.9811635 6.9436435 4.5107128 7.0449219 3.9394531 7.0449219 C 3.1349573 7.0449219 2.5311542 6.8613213 2.1289062 6.4921875 C 1.7300384 6.1230547 1.53125 5.4709875 1.53125 4.5351562 L 1.53125 3.8339844 z " /></svg>

<svg xmlns="http://www.w3.org/2000/svg" xml:space="preserve" viewBox="0 0 29 8">
  <path fill="#6495ec" d="M14.761-14.474h1.214v6.423q0 1.616-.319 2.655-.31 1.031-1.145 1.63-.827.6-2.108.6-1.806 0-2.708-1.077Q8.8-5.32 8.8-8.051v-6.423h1.206v6.416q0 1.51.235 2.184.235.675.766 1.032.538.349 1.305.349 1.289 0 1.865-.729.584-.728.584-2.836zm3.128 11.118v-11.118h1.205v11.118zM3.307-14.475c-1.204 0-2.108.359-2.71 1.077-.596.718-.894 1.988-.894 3.808v6.424H.91v-4.81h4.754v4.81H6.88V-9.59c0-1.077-.106-1.961-.318-2.654a3.02 3.02 0 0 0-1.147-1.631c-.551-.4-1.253-.6-2.107-.6Zm-.092 1.329c.86 0 1.48.24 1.865.726.39.485.584 1.432.584 2.838v.4H.91v-.4c0-1.006.078-1.736.235-2.186.156-.45.411-.793.765-1.03.36-.233.794-.348 1.305-.348zm21.448-1.329c-1.203 0-2.107.359-2.709 1.077-.532.64-.826 1.723-.883 3.242-.026.701-.027 1.403-.035 2.105-.005.448.008.827.023 1.158v.096h.004c.087 1.66.375 1.963.868 2.555.601.718 1.503 1.076 2.707 1.076.854 0 1.558-.2 2.109-.6.556-.4.937-.943 1.145-1.63.434-1.2.366-2.358.347-3.715h-1.242v.002h-2.648v1.226h2.644c-.016 1.307-.208 2.198-.58 2.662-.384.486-1.006.727-1.865.727-.51 0-.946-.115-1.305-.348-.354-.237-.61-.581-.768-1.031-.106-.306-.174-.745-.208-1.309v-2.4c0-1.006.077-1.736.234-2.186.157-.45.412-.793.766-1.03.359-.233.794-.348 1.304-.348.86 0 1.481.24 1.865.726.196.244.342.605.44 1.082h1.242a6.383 6.383 0 0 0-.201-.906 3.02 3.02 0 0 0-1.147-1.631c-.55-.4-1.253-.6-2.107-.6z" font-family="Arial Narrow" font-size="15.533" font-stretch="condensed" style="line-height:1.03;-inkscape-font-specification:'Arial Narrow Condensed'" transform="translate(10.44 9.78) scale(.64806)"/>
    <path fill="#6495ec" d="M.217.285v7.5h7.5v-7.5h-7.5zm1.314.947h.807v1.266H1.53V1.232zm3.985 0h.812v1.266h-.812V1.232zM1.53 3.834h.807v.697c0 .518.051.892.156 1.123.105.232.275.41.512.532.24.12.53.177.871.177.575 0 .991-.123 1.248-.373.26-.25.39-.736.39-1.459v-.697h.813v.701c0 .554-.07 1.01-.213 1.365-.138.354-.394.633-.765.838-.369.206-.84.307-1.41.307-.805 0-1.409-.184-1.811-.553-.399-.369-.598-1.021-.598-1.957v-.701z"/>
</svg>
